!!!COM:	Bach, Johann Sebastian
!!!CDT:	1685/02/21/-1750/07/28/
!!!OTL@@DE:	Es woll' uns Gott gen&auml;dig sein
!!!SCT:	BWV 311
!!!PC#:	16
!!!AGN:	chorale
**harm	**kern	**kern	**kern	**kern
*	*ICvox	*ICvox	*ICvox	*ICvox
*	*Ibass	*Itenor	*Ialto	*Isoprn
*	*I"Bass	*I"Tenor	*I"Alto	*I"Soprano
*>[A,A,B]	*>[A,A,B]	*>[A,A,B]	*>[A,A,B]	*>[A,A,B]
*>norep[A,B]	*>norep[A,B]	*>norep[A,B]	*>norep[A,B]	*>norep[A,B]
*>A	*>A	*>A	*>A	*>A
*	*	*oclefC4	*oclefC3	*oclefC1
*	*clefF4	*clefGv2	*clefG2	*clefG2
*k[f#c#]	*k[f#c#]	*k[f#c#]	*k[f#c#]	*k[f#c#]
*b:	*b:	*b:	*b:	*b:
*M4/4	*M4/4	*M4/4	*M4/4	*M4/4
*met(c)	*met(c)	*met(c)	*met(c)	*met(c)
*MM100	*MM100	*MM100	*MM100	*MM100
V	4F#	4A#	4f#	4cc#
=1	=1	=1	=1	=1
i	4B	4B	4f#	4dd
v6	4AnX	4c#	4f#	4cc#
iv6	4G	4e	4g	4b
III6	4F#	4A	4a	4dd
=2	=2	=2	=2	=2
iio6	4E	4c#	4g	4ee
i6	4D	4d	4f#	4ff#
viio6	4C#	4e	4a#	4ee
i	4BB	4f#	4b	4dd
=3	=3	=3	=3	=3
V;	2F#;	2f#;	2a#;	2cc#;
.	4r	4ry	4ry	4r
V65	4A#	4f#	4cc#	4ee
=4	=4	=4	=4	=4
i	4B	4f#	4b	4dd
iio6	4E	4e	4g	4cc#
D:I6	4F#	4d	4a	4dd
IV	4G	4d	4g	4b
=5	=5	=5	=5	=5
V6	4C#	4e	4e	4a
I	4D	4A	4d	4f#
b:viio7/iv	4D#	4c	4f#	4a
iv	4E	4B	4e	4g
=6	=6	=6	=6	=6
V;	2.F#;	2.A#;	2.c#;	2.f#;
*>B	*>B	*>B	*>B	*>B
v	4F#	4AnX	4c#	4a
=7	=7	=7	=7	=7
VI6	4BB	4B	4d	4g
D:I	4D	4A	4d	4f#
V7	4AA	4G	4c#	4e
b:V6	4AA#	4F#	4c#	4f#
=8	=8	=8	=8	=8
i	4BB	4F#	4d	4d
iv6	4GG	4B	4B	4e
V;	4FF#;	4A#;	4c#;	4f#;
V	4F#	4A#	4f#	4cc#
=9	=9	=9	=9	=9
i	4B	4B	4f#	4dd
viio6	4c#	4e	4a#	4cc#
i6	4d	4f#	4b	4b
viio6	8c#L	8eL	8a#L	8cc#L
i	8BJ	8dJ	8bJ	8ddJ
=10	=10	=10	=10	=10
V65	4A#	4c#	4f#	4ee
i	4B	4B	4f#	4dd
V;	4F#;	4A#;	4f#;	4cc#;
V65/iv	4D#	4B	4anX	4ff#
=11	=11	=11	=11	=11
IV	8EL	8BL	8g#L	8eeL
A:V7	8EJ	8BJ	8g#J	8ddJ
vi	4F#	4AnX	4a	4cc#
V6	4G#	4B	4e	4ee
V	8EL	8G#L	8eL	8bL
V2	8DJ	8G#J	8eJ	8bJ
=12	=12	=12	=12	=12
I6	4C#	4A	4e	4a
D:V65	4C#	4A	4e	4gnX
I;	4D;	4A;	4d;	4f#;
A:I	4A	4A	4c#	4e
=13	=13	=13	=13	=13
vi	8F#L	8AL	8c#L	8aL
viio6/V	8F#J	8AJ	8d#J	8aJ
V	8EL	8G#L	8eL	8bL
V2	8DnXJ	8G#J	8eJ	8bJ
b:viio6	8C#L	8A#L	8eL	8cc#L
i	8BBJ	8BJ	8f#J	8ddJ
V65	4AA#X	4c#	4f#	4ee
=14	=14	=14	=14	=14
i	8BBL	8BL	8f#L	8ddL
A:viio6	8BBJ	8BJ	8g#J	8ddJ
I6	4C#	4e	4a	4cc#
V;	4E;	4e;	4g#;	4b;
IV6	8F#L	8AL	8f#L	8ddL
vii%7	8G#J	8BJ	8f#J	8ddJ
=15	=15	=15	=15	=15
I	4A	4c#	4e	4cc#
D:IV6	4B	4d	4gnX	4b
I	4d	4d	4f#	4a
I	4D	4A	4d	4f#
=16	=16	=16	=16	=16
e:iv6	4C	4A	4e	4a
i64	4BB	4B	4e	4g
V65/V	4AA#	4c#	4e	4f#
b:i	4BB	4B	4d	4f#
=17	=17	=17	=17	=17
V;	2.FF#;	2.A#;	2.c#;	2.f#;
==	==	==	==	==
*-	*-	*-	*-	*-
!!!YOR1: 371 vierstimmige Choralges&auml;nge von Johann Sebastian Bach, 
!!!YOR2: 4th ed. by Alfred D&ouml;rffel (Leipzig: Breitkopf und H&auml;rtel, 
!!!YOR2: c.1875). 178 pp. Plate "V.A.10".  reprint: J.S. Bach, 371 Four-Part 
!!!YOR4: Chorales (New York: Associated Music Publishers, Inc., c.1940).
!!!SMS: B&H, 4th ed, Alfred D&ouml;rffel, c.1875, plate V.A.10
!!!EED:  Craig Stuart Sapp
!!!EEV:  2009/05/22
